src/images/icons+logos/search-icon.svg

<svg width="24" height="24" viewBox="0 0 24 24" fill="none" xmlns="http://www.w3.org/2000/svg">
<path d="M10 16C6.69 16 4 13.31 4 10C4 6.69 6.69 4 10 4C13.31 4 16 6.69 16 10C16 13.31 13.31 16 10 16ZM23.12 18.88L18.86 14.62C19.6122 13.1964 20.0036 11.6101 20 10C20 4.48 15.52 0 10 0C4.48 0 0 4.48 0 10C0 15.52 4.48 20 10 20C11.67 20 13.24 19.59 14.62 18.86L18.88 23.12C19.4425 23.6818 20.205 23.9974 21 23.9974C21.795 23.9974 22.5575 23.6818 23.12 23.12C23.6818 22.5575 23.9974 21.795 23.9974 21C23.9974 20.205 23.6818 19.4425 23.12 18.88" fill="#767676"/>
</svg>

<svg xmlns="http://www.w3.org/2000/svg" class="gUZ B9u U9O kVc" viewBox="0 0 24 24" aria-label="Search icon" role="img"><path d="M10 16c-3.31 0-6-2.69-6-6s2.69-6 6-6 6 2.69 6 6-2.69 6-6 6m13.12 2.88l-4.26-4.26A9.842 9.842 0 0 0 20 10c0-5.52-4.48-10-10-10S0 4.48 0 10s4.48 10 10 10c1.67 0 3.24-.41 4.62-1.14l4.26 4.26a3 3 0 0 0 4.24 0 3 3 0 0 0 0-4.24"/></svg>
